!!!!SEGMENT: Ser1004g-Requiem-Agnus
!!!id: Ser1004g
!!!AGN: Mass; Agnus
!!!voices: 4
!!!OPR: Requiem
!!!COM: Claudin de Sermisy
!!!OTL: Agnus
**kern	**kern	**kern	**kern
*part4	*part3	*part2	*part1
*staff4	*staff3	*staff2	*staff1
*I"Bassus	*I"Tenor	*I"Altus	*I"Superius
*I'B.	*I'T.	*I'A.	*I'S.
*clefF4	*clefGv2	*clefGv2	*clefGv2
*k[]	*k[]	*k[]	*k[]
*M2/1	*M2/1	*M2/1	*M2/1
*met(C|)	*met(C|)	*met(C|)	*met(C|)
=1	=1	=1	=1
!!section: Qui tollis I
!!!OMD: Qui tollis I
!	!	!	!LO:TX:a:t=Cantus firmus&colon; Missa pro defunctis
0AA	0r	0A	0e
=2	=2	=2	=2
0AA	0A	0c	0e
=3	=3	=3	=3
0D	0A	0d	0f
=4	=4	=4	=4
1r	0A	1c	1e
1D	.	1d	1f
=5	=5	=5	=5
1E	1G	1B	1.e
1C	1A	1c	.
.	.	.	2e
=6	=6	=6	=6
1D	1F	1A	2.d
.	.	.	4c
1E	1G	2r	1B
.	.	[2E	.
=7	=7	=7	=7
1AA	0A	2E]	1c
.	.	2E	.
1D	.	1F	2r
.	.	.	2d
=8	=8	=8	=8
1r	1G	1E	1e
[1D	[1A	1r	1f
=9	=9	=9	=9
1D]	1A]	1F	0d
1GG	1B	2G	.
.	.	2G	.
=10	=10	=10	=10
2.C	0G	2E	1.e
.	.	2c	.
4D	.	.	.
1E	.	2B	.
.	.	2c	2e
=11	=11	=11	=11
1.D	1.A	0d	0f
2D	2A	.	.
=12	=12	=12	=12
0AA;	0A;	0c;	0e;
=13	=13	=13	=13
0D	0A	0F	0d
=14	=14	=14	=14
1AA	1A	1E	1c
1D	1A	1F	1d
=15	=15	=15	=15
1GG	1G	2r	1d
.	.	2D	.
[1D	1A	2.F	[1d
.	.	4G	.
=16	=16	=16	=16
2D]	1F	1A	2d]
2D	.	.	2d
1BB	1G	2.D	1d
.	.	4E	.
=17	=17	=17	=17
0AA	0A	1F	0c
.	.	[1E	.
=18	=18	=18	=18
1r	0G	1E]	1B
[1C	.	[1E	2.c
.	.	.	4d
=19	=19	=19	=19
1C]	0A	1E]	1e
[1D	.	[1F	[1d
=20	=20	=20	=20
1D]	0B	1F]	1d]
[1E	.	1G	1B
=21	=21	=21	=21
1E]	1G	1C	1c
1C	[1A	2.c	1e
.	.	4B	.
=22	=22	=22	=22
1.D	1A]	4A	1d
.	.	4G	.
.	.	2.F	.
.	1A	.	[1d
.	.	4C	.
2D	.	[2F	.
=23	=23	=23	=23
0AA	[0Al	2F]	2d]
.	.	4E	4c#i
.	.	4D	4B
.	.	1E	1c#i
=24	=24	=24	=24
0Dl	0A]	0Fl	0dl
=25||	=25||	=25||	=25||
*M2/1	*M2/1	*M2/1	*M2/1
*met(C|)	*met(C|)	*met(C|)	*met(C|)
!!section: Qui tollis II
!!!OMD: Qui tollis II
0A	0r	0c	0e
=26	=26	=26	=26
0F	0A	0c	0f
=27	=27	=27	=27
0D	0A	0d	0f
=28	=28	=28	=28
1r	0A	1c	1e
1D	.	1d	1f
=29	=29	=29	=29
1E	1G	1B	1.e
1C	1A	1c	.
.	.	.	2e
=30	=30	=30	=30
1D	1F	1A	2.d
.	.	.	4c
1E	1G	2r	1B
.	.	[2E	.
=31	=31	=31	=31
1AA	0A	2E]	1c
.	.	2E	.
1D	.	1F	2r
.	.	.	2d
=32	=32	=32	=32
1r	1G	1E	1e
[1D	[1A	1r	1f
=33	=33	=33	=33
1D]	1A]	1F	0d
1GG	1B	2G	.
.	.	2G	.
=34	=34	=34	=34
1C	1G	2E	1.e
.	.	1c	.
1AA	[1A	.	.
.	.	2c	2e
=35	=35	=35	=35
1.E	2A]	2c	0e
.	4G#i	4B	.
.	4F#i	4A	.
.	1G#i	1B	.
2E	.	.	.
=36	=36	=36	=36
1AA	0A	1A	1.c
2r	.	2r	.
[2AA	.	[2E	2c
=37	=37	=37	=37
2AA]	1.A	2E]	1c
2AA	.	2E	.
2.FF	.	1F	1c
.	2A	.	.
4GG	.	.	.
=38	=38	=38	=38
1AA	0A	1E	2r
.	.	.	1c
2r	.	2r	.
[2AA	.	[2E	2c
=39	=39	=39	=39
2AA]	[0Al	2E]	1c
2AA	.	2E	.
1D	.	1F	[1d
=40	=40	=40	=40
[0AAl	0A_	[0El	2d]
.	.	.	4c
.	.	.	4B
.	.	.	2.c
.	.	.	4d
=41	=41	=41	=41
0AA]	0A]	0E]	0cl
==	==	==	==
*-	*-	*-	*-
!!!system-decoration: s1,s2,s3,s4
!!!RDF**kern: i = editorial accidental
!!!RDF**kern: l = terminal long
!!!ENC: Max Blistain
!!!END: 2025/11/20
!!!EED: Benjamin Ory
!!!EEV: 2026/02/20
!!!YEC: Copyright 2026 Benjamin Ory, All Rights Reserved
!!!ONB: Translated from MusicXML on 2026/02/20